X:1
T:Quem dicunt homines? - Marenzio
T:James Gibb editions
T:#
%%score [ 1 2 3 4 ]
L:1/8
Q:1/4=200
M:none
K:C
V:1 treble nm="Soprano" snm="S"
V:2 treble nm="Alto" snm="A"
V:3 treble-8 nm="Tenor" snm="T"
V:4 bass nm="Bass" snm="B"
V:1
"^Quem dicunt homines?""^Luca Marenzio\n(1556-1599)""^Matthew 16: 13, 16, 18" z16 | z16 | z16 | %3
w: |||
 z4 G8 D4 | E6 E2 D4 G4- | G4 ^F4 G8 | z16 | B16 | c8 B8 | d6 d2 G4 c4 | B4 c8 d4 | e8 z8 | c16 | %13
w: Es- se|Fi- li- um ho\-|* mi- nis?||Quem|di- cunt|ho- mi- nes es-|se Fi- li-|um?|Quem|
 B8 c8 | A6 A2 e8 | z4 A8 d4 | ^c6 c2 d8 | A4 B4 d8- | d8 z8 | z8 z4 G4- | G4 D4 E6 E2 | %21
w: di- cunt|ho- mi- nes|es- se|Fi- li- um|ho- mi- nis?||es\-|* se Fi- li-|
 D4 G8 ^F4 | G8 z8 | z8 z4 d4- | d4 A4 B6 B2 | G4 c8 B4 | c8 G8 | G8 G8- | G8 ^F8- | F8 G4 G4- | %30
w: um ho- mi-|nis?|es\-|* se Fi- li-|um ho- mi-|nis? di-|xit Je\-|* sus|* di- sci\-|
 G2 G2 G4 (A6 G2 | F8) E8- | E8 A4 A4 | F4 G4 A8 | z8 G4 G4 | E4 ^F4 G8 | E16 | D4 G8 G4 | A16 | %39
w: * pu- lis su\- *|* is.|* Re- spon-|dens Pe- trus,|re- spon-|dens Pe- trus,|di-|xit: Tu es|Chri-|
 G4 c6 c2 B4 | (A6 G2 A2 B2 c4) | B4 (A8 ^G4) | A16 | z8 z4 d4 | d4 d4 c4 A4 | c8 G8 | z8 d8 | %47
w: stus, Fi- li- us|De\- * * * *|i vi\- *|vi.|Et|e- go di- co|ti- bi,|qui-|
 G4 c8 B4 | c8 G8 | G8 G8 | G8 G8 | G16 | G16 | z16 | z4 c4 A4 G4 | (c6 B2 A4) G4 | z4 c4 A4 G4 | %57
w: a tu es|Pe- trus,|et su-|per hanc|pe-|tram||ae- di- fi-|ca\- * * bo,|ae- di- fi-|
 (c6 B2 A4) G4 | C4 G6 G2 E4 | (c6 d2 e2 d2 c2 B2 | A2 G2 c8 B2 A2 | G4 A6 ^G^F G4) | A8 z4 G4 | %63
w: ca\- * * bo|Ec- cle- si- am|me\- * * * * *|||am ae-|
 F4 E4 (c6 B2 | A4) G4 z4 c4 | A4 G4 (C6 D2 | E2 F2 G4) C4 (E4- | E2 F2 G6 ^FE F4) | %68
w: di- fi- ca\- *|* bo, ae-|di- fi- ca\- *|* * * bo Ec\-||
 G6 D2 E4 (c4- | c2 d2 e2 d2 c2 B2 A2 G2 | %70
w: cle- si- am me\-||
[Q:1/4=197] F6[Q:1/4=194] G2[Q:1/4=192] A2[Q:1/4=191] B2[Q:1/4=189] c2[Q:1/4=188] d2 | %71
w: |
[Q:1/4=185] e6[Q:1/4=182] d2[Q:1/4=180] c2[Q:1/4=179] B2[Q:1/4=177] A4- | %72
w: |
[Q:1/4=174] A4[Q:1/4=172] ^G2[Q:1/4=170] ^F2)[Q:1/4=170] G8- | G16 |] %74
w: * * * am.||
V:2
 E16 | F8 E8 | G6 G2 C8 | z8 z4 G4- | G4 C4 D6 D2 | B,4 D8 ^C4 | (D2 =C2 B,2 A,2 B,2 C2 D2 C2 | %7
w: Quem|di- cunt|ho- mi- nes|es\-|* se Fi- li-|um ho- mi-|nis? * * * * * * *|
 B,8) z8 | E16 | F8 E8 | G6 G2 A8 | z4 G8 D4 | G6 E2 E4 A4- | A4 ^G4 A8 | z16 | F16 | E8 F8 | %17
w: |Quem|di- cunt|ho- mi- nes|es- se|Fi- li- um ho\-|* mi- nis?||Quem|di- cunt|
 D6 D2 A8 | z4 D8 G4 | ^F6 F2 G4 (D4- | D2 C2 B,2 A,2 G,4) A,4 | (B,8 A,8) | z4 D4 E4 F4 | %23
w: ho- mi- nes|es- se|Fi- li- um ho\-|* * * * * mi-|nis? *|Quem di- cunt|
 G6 G2 (F2 E2 D2 C2 | B,4) D6 D2 E4- | E2 E2 A,4 D6 D2 | C8 E8 | E8 (B,8 | C8) D8- | D8 D4 D4- | %30
w: ho- mi- nes * * *|* es- se Fi\-|* li- um ho- mi-|nis? di-|xit Je\-|* sus|* di- sci\-|
 D2 D2 E4 (C8 | D8) B,8- | B,8 A,4 D4- | D2 C2 B,4 C8 | z8 G,4 C4- | C2 B,2 A,4 G,8 | C16 | %37
w: * pu- lis su\-|* is.|* Re- spon\-|* dens Pe- trus,|re- spon\-|* dens Pe- trus,|di-|
 B,4 D8 E4 | (C6 DE F8) | E8 G6 G2 | E4 F8 G4 | (F8 E8) | E16 | z4 G4 G4 G4 | F4 D4 F8 | C8 z4 G4 | %46
w: xit: Tu es|Chri\- * * *|stus, Fi- li-|us De- i|vi\- *|vi.|Et e- go|di- co ti-|bi, et|
 G4 G4 F4 D4 | E4 E4 G8 | E4 E8 D4 | E8 D8 | z4 E8 D4 | E8 D8 | z4 E8 G4 | (F2 E2 E2 DC D8) | %54
w: e- go di- co|ti- bi, qui-|a tu es|Pe- trus,|tu es|Pe- trus,|tu es|Pe\- * * * * *|
 E8 E8 | E16 | E16 | E16 | E16 | (E6 F2 G2 F2 E2 D2 | C2 D2 E2 D2 C8- | C4 B,2 A,2 B,8) | %62
w: trus, et|su-|per|hanc|pe-|tram * * * * *|||
 z4 C4 A,4 G,4 | C12 E4 | E8 C8- | C4 E4 E8- | E8 E8 | (B,6 C2 D8) | D4 G6 G2 E4 | E8 F4 C4- | %70
w: ae- di- fi-|ca- bo|Ec- cle\-|* si- am|* me-|am, * *|Ec- cle- si- am|me- am, Ec\-|
 C4 F8 E4 | E8 E8 | E16- | E16 |] %74
w: * cle- si-|am me-|am.||
V:3
 z16 | z16 | z16 | B16 | c8 B8 | d6 d2 G8 | z4 d8 A4 | d6 d2 B4 (e2 d2 | c2 B2 A6 G2 G2 FE | %9
w: |||Quem|di- cunt|ho- mi- nes|es- se|Fi- li- um ho\- *||
 D4) D4 C8 | z8 c8- | c8 B8 | c8 A6 A2 | e8 z4 c4- | c4 A4 ^G6 G2 | (A2 B2 c2 A2 d8) | z8 d8- | %17
w: * mi- nis?|Quem|* di-|cunt ho- mi-|nes es\-|* se Fi- li-|um, * * * *|es\-|
 d4 B4 A6 A2 | B8 A4 G4 | (A8 B6 c2 | d8) z8 | z4 d8 A4 | B6 B2 A4 d4- | d4 ^c4 (d2 =c2 B2 c2 | %24
w: * se Fi- li-|um ho- mi-|nis? * *||es- se|Fi- li- um ho\-|* mi- nis? * * *|
 d6 c2 B8 | c6 BA G8) | z8 c8 | c8 G8- | G8 A8- | A8 B4 B4- | B2 B2 c4 A8 | (A12 ^G2 ^F2 | ^G8 z8 | %33
w: ||di-|xit Je\-|* sus|* di- sci\-|* pu- lis su-|is. * *||
 z8 e4 e4 | c4 d4 e8 | z16 | G16 | G4 B8 c4 | A6 B2 c8) | c4 e6 e2 d4 | (c6 B2 c2 d2 e4) | d8 B8 | %42
w: Re- spon-|dens Pe- trus,||di-|xit: Tu es|Chri\- * *|stus, Fi- li- us|De\- * * * *|i vi-|
 A8 z4 e4 | e4 e4 d4 B4 | d8 A8 | z4 c4 c4 c4 | B4 G4 (A6 B2 | c8) d8 | z8 G8 | C4 c8 B4 | c8 G8 | %51
w: vi. Et|e- go di- co|ti- bi,|et e- go|di- co ti\- *|* bi,|qui-|a tu es|Pe- trus,|
 z4 c8 B4 | c8 e4 (d4- | d2 c2 c6 BA B4) | c8 z4 c4 | A4 G4 (c6 B2 | A4 G4 z4 c4 | A4 G4 (c6 B2 | %58
w: et su-|per hanc pe\-||tram ae-|di- fi- ca\- *|* bo, ae-|di- fi ca\- *|
 A4) G4 C4 G4- | G2 G2 E4 c6 d2 | e2 d2 c2 B2 A4 G2 F2 | E16) | (A6 B2 c8) | z4 c4 A4 G4 | %64
w: * bo Ec- cle\-|* si- am me\- *|||am, * *|ae- di- fi-|
 (c6 B2 A4) G4 | z4 c4 A4 G4 | (c6 B2 A4) G4 | (G8 A8) | B6 B2 G8 | (c6 B2 A2 G2 F4- | %70
w: ca\- * * bo,|ae- di- fi-|ca\- * * bo|Ec\- *|cle- si- am|me\- * * * *|
 F2 E2 D2 E2 F2 G2 A2 B2 | c16) | B16- | B16 |] %74
w: ||am.||
V:4
 z16 | z8 E,8- | E,8 F,8 | E,8 G,6 G,2 | C,8 z4 G,4- | G,4 D,4 E,6 E,2 | D,4 G,8 ^F,4 | G,16 | %8
w: |Quem|* di-|cunt ho- mi-|nes es\-|* se Fi- li-|um ho- mi-|nes?|
 z16 | z8 E,8- | E,8 F,8 | E,8 G,6 G,2 | C,8 z8 | z8 F,8- | F,8 E,8 | F,8 D,6 D,2 | A,8 z4 D,4- | %17
w: |Quem|* di-|cunt ho- mi-|nes,|quem|* di-|cunt ho- mi-|nes es\-|
 D,4 G,4 ^F,6 F,2 | G,8 D,4 E,4 | D,8 B,,8- | B,,8 C,8 | B,,8 D,6 D,2 | G,,4 G,8 D,4 | %23
w: * se Fi- li-|um ho- mi-|nis? Quem|* di-|cunt ho- mi-|nes es- se|
 E,6 E,2 D,4 G,4- | G,4 ^F,4 G,8 | z16 | z8 C,8- | C,4 D,4 E,8- | E,8 D,8- | D,8 G,4 G,4- | %30
w: Fi- li- um ho\-|* mi- nis?||di\-|* xit Je\-|* sus|* di- sci\-|
 G,2 G,2 E,4 (F,6 E,2 | D,8) E,8- | E,8 z8 | z8 A,,4 A,4- | A,2 G,2 F,4 E,8 | z16 | C,16 | %37
w: * pu- lis su\- *|* is.||Re- spon\-|* dens Pe- trus,||di-|
 G,,4 G,8 E,4 | F,16 | C,8 G,6 G,2 | A,4 F,8 C,4 | (D,8 E,8) | A,,4 A,4 A,4 A,4 | G,4 E,4 G,8 | %44
w: xit: Tu es|Chri-|stus, Fi- li-|us De- i|vi\- *|vi. Et e- go|di- co ti-|
 D,8 z4 F,4 | F,4 F,4 E,4 C,4 | E,8 D,8 | z8 G,8 | C,4 C8 B,4 | C8 G,8 | z4 C,8 B,,4 | C,8 G,8 | %52
w: bi, et|e- go di- co|ti- bi,|qui-|a tu es|Pe- trus,|tu es|Pe- trus,|
 z4 C8 B,4 | A,8 G,8 | C,16 | C,16 | C,16 | C,16 | C,16 | C,16- | C,8 z8 | z16 | z4 A,4 F,4 E,4 | %63
w: tu es|Pe- trus,|et|su-|per|hanc|pe-|tram|||ae- di- fi-|
 (A,6 G,2 F,4) E,4 | z4 C,4 F,4 E,4 | F,4 C,4 z4 C,4 | A,,4 G,,4 (C,6 D,2 | E,8) D,8 | %68
w: ca\- * * bo,|ae- di- fi-|ca- bo, ae-|di- fi- ca\- *|* bo|
 G,,8 C,6 C,2 | A,,8 (F,6 G,2 | A,2 G,2 F,2 E,2 D,4 C,2 B,,2 | A,,16) | E,16- | E,16 |] %74
w: Ec- cle- si-|am me\- *|||am.||

